docs/img/apgl.svg

<?xml version="1.0" encoding="UTF-8" standalone="no"?>
<svg
   viewBox="0 0 65536 4096"
   version="1.1"
   id="svg12"
   width="65536"
   height="4096"
   xmlns="http://www.w3.org/2000/svg"
   xmlns:svg="http://www.w3.org/2000/svg">
  <defs
     id="defs9">
    <mask
       maskUnits="userSpaceOnUse"
       id="mask16">
      <g
         id="g19">
        <rect
           x="0"
           y="0"
           width="64"
           height="64"
           fill="#ffffff"
           mask="none"
           id="rect16" />
        <path
           d="M 0,18 C 17,18 27,47 64.2,52.2 101.4,57.4 93.5,3.5 133,20 c 39.5,16.5 24,43.2 67,22.2 43,-21 44.2,15.6 56,17.3"
           fill="none"
           stroke="#000000"
           stroke-width="3"
           id="path17" />
        <circle
           cx="31"
           cy="38"
           r="6"
           fill="#ffffff"
           id="circle17" />
        <path
           d="m 37.326172,43.756836 q -3.00586,3.770508 -9.202149,3.770508 -3.322265,0 -5.774414,-2.399414 -2.425781,-2.425782 -2.425781,-6.011719 0,-4.297852 3.744141,-7.250977 3.770508,-2.979492 9.597656,-2.979492 1.582031,0 3.585937,0.685547 0,-6.855469 -6.117187,-6.855469 -4.693359,0 -7.224609,2.53125 l -2.109375,-4.192383 q 1.423828,-1.160156 3.928711,-1.977539 2.53125,-0.84375 4.825195,-0.84375 6.143555,0 8.912109,2.794922 2.794922,2.794922 2.794922,8.885742 v 10.125 q 0,3.717774 2.214844,4.957032 v 2.504883 q -3.058594,0 -4.587891,-0.870118 -1.502929,-0.870117 -2.162109,-2.874023 z m -0.47461,-10.625977 q -2.373046,-0.527343 -3.322265,-0.527343 -3.796875,0 -6.196289,1.951171 -2.399414,1.951172 -2.399414,4.614258 0,4.403321 5.194336,4.403321 3.796875,0 6.723632,-3.612305 z"
           id="path18"
           style="font-size:54px;font-family:'Trebuchet MS';text-anchor:middle;fill:none;stroke:#ffffff;stroke-width:6"
           aria-label="a" />
        <path
           d="m 37.326172,43.756836 q -3.00586,3.770508 -9.202149,3.770508 -3.322265,0 -5.774414,-2.399414 -2.425781,-2.425782 -2.425781,-6.011719 0,-4.297852 3.744141,-7.250977 3.770508,-2.979492 9.597656,-2.979492 1.582031,0 3.585937,0.685547 0,-6.855469 -6.117187,-6.855469 -4.693359,0 -7.224609,2.53125 l -2.109375,-4.192383 q 1.423828,-1.160156 3.928711,-1.977539 2.53125,-0.84375 4.825195,-0.84375 6.143555,0 8.912109,2.794922 2.794922,2.794922 2.794922,8.885742 v 10.125 q 0,3.717774 2.214844,4.957032 v 2.504883 q -3.058594,0 -4.587891,-0.870118 -1.502929,-0.870117 -2.162109,-2.874023 z m -0.47461,-10.625977 q -2.373046,-0.527343 -3.322265,-0.527343 -3.796875,0 -6.196289,1.951171 -2.399414,1.951172 -2.399414,4.614258 0,4.403321 5.194336,4.403321 3.796875,0 6.723632,-3.612305 z"
           id="path19"
           style="font-size:54px;font-family:'Trebuchet MS';text-anchor:middle"
           aria-label="a" />
      </g>
    </mask>
    <mask
       maskUnits="userSpaceOnUse"
       id="mask24">
      <g
         id="g27">
        <rect
           x="64"
           y="0"
           width="64"
           height="64"
           fill="#ffffff"
           mask="none"
           id="rect24" />
        <path
           d="M 0,18 C 17,18 27,47 64.2,52.2 101.4,57.4 93.5,3.5 133,20 c 39.5,16.5 24,43.2 67,22.2 43,-21 44.2,15.6 56,17.3"
           fill="none"
           stroke="#000000"
           stroke-width="3"
           id="path25" />
        <circle
           cx="96"
           cy="33"
           r="8"
           fill="#ffffff"
           id="circle25" />
        <path
           d="M 89.526855,45.444336 V 58.074219 H 84.51709 V 18.760742 h 5.009765 v 2.320313 q 2.847657,-2.847657 6.881836,-2.847657 6.011719,0 9.360349,3.744141 3.34864,3.744141 3.34864,10.96875 0,6.433594 -3.375,10.520508 -3.375,4.060547 -9.755864,4.060547 -1.792968,0 -3.849609,-0.632813 -2.030273,-0.632812 -2.610352,-1.450195 z m 0,-20.592774 v 16.453125 q 0.47461,0.711915 2.003907,1.371094 1.529297,0.632813 2.979492,0.632813 9.333986,0 9.333986,-10.546875 0,-5.352539 -2.21485,-7.831055 -2.214839,-2.478516 -7.092769,-2.478516 -1.054687,0 -2.583984,0.738282 -1.529297,0.738281 -2.425782,1.661132 z"
           id="path26"
           style="font-size:54px;font-family:'Trebuchet MS';text-anchor:middle;fill:none;stroke:#ffffff;stroke-width:6"
           aria-label="p" />
        <path
           d="M 89.526855,45.444336 V 58.074219 H 84.51709 V 18.760742 h 5.009765 v 2.320313 q 2.847657,-2.847657 6.881836,-2.847657 6.011719,0 9.360349,3.744141 3.34864,3.744141 3.34864,10.96875 0,6.433594 -3.375,10.520508 -3.375,4.060547 -9.755864,4.060547 -1.792968,0 -3.849609,-0.632813 -2.030273,-0.632812 -2.610352,-1.450195 z m 0,-20.592774 v 16.453125 q 0.47461,0.711915 2.003907,1.371094 1.529297,0.632813 2.979492,0.632813 9.333986,0 9.333986,-10.546875 0,-5.352539 -2.21485,-7.831055 -2.214839,-2.478516 -7.092769,-2.478516 -1.054687,0 -2.583984,0.738282 -1.529297,0.738281 -2.425782,1.661132 z"
           id="path27"
           style="font-size:54px;font-family:'Trebuchet MS';text-anchor:middle"
           aria-label="p" />
      </g>
    </mask>
    <mask
       maskUnits="userSpaceOnUse"
       id="mask32">
      <g
         id="g35">
        <rect
           x="128"
           y="0"
           width="64"
           height="64"
           fill="#ffffff"
           mask="none"
           id="rect32" />
        <path
           d="M 0,18 C 17,18 27,47 64.2,52.2 101.4,57.4 93.5,3.5 133,20 c 39.5,16.5 24,43.2 67,22.2 43,-21 44.2,15.6 56,17.3"
           fill="none"
           stroke="#000000"
           stroke-width="3"
           id="path33" />
        <path
           d="m 148.97852,54.725586 2.71582,-4.007813 q 4.37695,2.926758 8.06836,2.926758 3.40136,0 5.35253,-1.186523 1.97754,-1.160156 1.97754,-2.900391 0,-3.427734 -4.95703,-3.427734 -0.84375,0 -3.05859,0.421875 -2.21485,0.421875 -3.4541,0.421875 -6.01172,0 -6.01172,-4.535156 0,-1.397461 1.39746,-2.53125 1.42383,-1.13379 3.50683,-1.634766 -5.95898,-2.794922 -5.95898,-9.703125 0,-4.429688 3.08496,-7.382813 3.08496,-2.953125 7.62012,-2.953125 4.16601,0 6.51269,1.713868 l 2.50489,-3.00586 3.26953,3.084961 -3.00586,2.267578 q 1.9248,2.504883 1.9248,6.539063 0,4.271484 -2.66308,7.171875 -2.66309,2.90039 -6.98731,3.322265 l -4.13965,0.421875 q -0.73828,0.0791 -1.97753,0.580079 -1.23926,0.474609 -1.23926,1.265625 0,1.081054 2.58398,1.081054 1.13379,0 3.5332,-0.395508 2.39942,-0.421875 3.55958,-0.421875 4.16601,0 6.48632,2.003907 2.34668,1.977539 2.34668,5.510742 0,3.902344 -3.50683,6.301758 -3.48047,2.399414 -8.83301,2.399414 -2.74219,0 -5.77441,-0.975586 -3.03223,-0.975586 -4.87793,-2.373047 z m 10.62597,-32.458008 q -2.61035,0 -4.27148,1.845703 -1.63477,1.845703 -1.63477,4.482422 0,2.953125 1.58203,4.904297 1.6084,1.924805 4.32422,1.924805 2.66309,0 4.16602,-1.872071 1.50293,-1.898437 1.50293,-4.957031 0,-2.636719 -1.63477,-4.482422 -1.6084,-1.845703 -4.03418,-1.845703 z"
           id="path34"
           style="font-size:54px;font-family:'Trebuchet MS';text-anchor:middle;fill:none;stroke:#ffffff;stroke-width:6"
           aria-label="g" />
        <path
           d="m 148.97852,54.725586 2.71582,-4.007813 q 4.37695,2.926758 8.06836,2.926758 3.40136,0 5.35253,-1.186523 1.97754,-1.160156 1.97754,-2.900391 0,-3.427734 -4.95703,-3.427734 -0.84375,0 -3.05859,0.421875 -2.21485,0.421875 -3.4541,0.421875 -6.01172,0 -6.01172,-4.535156 0,-1.397461 1.39746,-2.53125 1.42383,-1.13379 3.50683,-1.634766 -5.95898,-2.794922 -5.95898,-9.703125 0,-4.429688 3.08496,-7.382813 3.08496,-2.953125 7.62012,-2.953125 4.16601,0 6.51269,1.713868 l 2.50489,-3.00586 3.26953,3.084961 -3.00586,2.267578 q 1.9248,2.504883 1.9248,6.539063 0,4.271484 -2.66308,7.171875 -2.66309,2.90039 -6.98731,3.322265 l -4.13965,0.421875 q -0.73828,0.0791 -1.97753,0.580079 -1.23926,0.474609 -1.23926,1.265625 0,1.081054 2.58398,1.081054 1.13379,0 3.5332,-0.395508 2.39942,-0.421875 3.55958,-0.421875 4.16601,0 6.48632,2.003907 2.34668,1.977539 2.34668,5.510742 0,3.902344 -3.50683,6.301758 -3.48047,2.399414 -8.83301,2.399414 -2.74219,0 -5.77441,-0.975586 -3.03223,-0.975586 -4.87793,-2.373047 z m 10.62597,-32.458008 q -2.61035,0 -4.27148,1.845703 -1.63477,1.845703 -1.63477,4.482422 0,2.953125 1.58203,4.904297 1.6084,1.924805 4.32422,1.924805 2.66309,0 4.16602,-1.872071 1.50293,-1.898437 1.50293,-4.957031 0,-2.636719 -1.63477,-4.482422 -1.6084,-1.845703 -4.03418,-1.845703 z"
           id="path35"
           style="font-size:54px;font-family:'Trebuchet MS';text-anchor:middle"
           aria-label="g" />
      </g>
    </mask>
    <mask
       maskUnits="userSpaceOnUse"
       id="mask36">
      <g
         id="g38">
        <rect
           x="192"
           y="0"
           width="64"
           height="64"
           fill="#ffffff"
           mask="none"
           id="rect36" />
        <path
           d="M 0,18 C 17,18 27,47 64.2,52.2 101.4,57.4 93.5,3.5 133,20 c 39.5,16.5 24,43.2 67,22.2 43,-21 44.2,15.6 56,17.3"
           fill="none"
           stroke="#000000"
           stroke-width="3"
           id="path36" />
        <path
           d="M 219.99219,39.010742 V 7.1855469 h 5.00976 V 38.166992 q 0,2.267578 1.292,3.585938 1.31835,1.291992 3.42773,1.291992 v 4.482422 q -9.72949,0 -9.72949,-8.516602 z"
           id="path37"
           style="font-size:54px;font-family:'Trebuchet MS';text-anchor:middle;fill:none;stroke:#ffffff;stroke-width:6"
           aria-label="l" />
        <path
           d="M 219.99219,39.010742 V 7.1855469 h 5.00976 V 38.166992 q 0,2.267578 1.292,3.585938 1.31835,1.291992 3.42773,1.291992 v 4.482422 q -9.72949,0 -9.72949,-8.516602 z"
           id="path38"
           style="font-size:54px;font-family:'Trebuchet MS';text-anchor:middle"
           aria-label="l" />
      </g>
    </mask>
  </defs>
  <path
     d="M 2,32 V 4 A 2,2 0 0 1 4,2 h 28 a 30,30 0 0 1 30,30 v 28 a 2,2 0 0 1 -2,2 H 32 A 30,30 0 0 1 2,32"
     fill="#d4b126"
     mask="url(#mask16)"
     id="path9" />
  <path
     d="M 66,32 A 30,30 0 0 1 96,2 h 28 a 2,2 0 0 1 2,2 V 32 A 30,30 0 0 1 96,62 H 68 A 2,2 0 0 1 66,60 V 32"
     fill="#eb8e2a"
     mask="url(#mask24)"
     id="path10" />
  <path
     d="M 130,32 V 4 a 2,2 0 0 1 2,-2 h 28 a 30,30 0 0 1 30,30 v 28 a 2,2 0 0 1 -2,2 H 160 A 30,30 0 0 1 130,32"
     fill="#f5512c"
     mask="url(#mask32)"
     id="path11" />
  <path
     d="M 194,32 A 30,30 0 0 1 224,2 h 28 a 2,2 0 0 1 2,2 v 28 a 30,30 0 0 1 -30,30 h -28 a 2,2 0 0 1 -2,-2 V 32"
     fill="#f52e5f"
     mask="url(#mask36)"
     id="path12" />
</svg>

<svg viewBox="0 0 256 64" xmlns="http://www.w3.org/2000/svg">
    <defs>
        <mask id="mask-line">
            <rect x="0" y="0" width="256" height="64" fill="white" />
            <path d="M 0 18 C 17 18, 27 47, 64.2 52.2 S 93.5 3.5, 133 20 S 157 63.2, 200 42.2 S 244.2 57.8, 256 59.5"
                  fill="none" stroke="black" stroke-width="3" />
            <circle cx="31" cy="38" r="6" fill="white" />
            <circle cx="96" cy="33" r="8" fill="white" />
            <path
                d="m 37.326172,43.756836 q -3.00586,3.770508 -9.202149,3.770508 -3.322265,0 -5.774414,-2.399414 -2.425781,-2.425782 -2.425781,-6.011719 0,-4.297852 3.744141,-7.250977 3.770508,-2.979492 9.597656,-2.979492 1.582031,0 3.585937,0.685547 0,-6.855469 -6.117187,-6.855469 -4.693359,0 -7.224609,2.53125 l -2.109375,-4.192383 q 1.423828,-1.160156 3.928711,-1.977539 2.53125,-0.84375 4.825195,-0.84375 6.143555,0 8.912109,2.794922 2.794922,2.794922 2.794922,8.885742 v 10.125 q 0,3.717774 2.214844,4.957032 v 2.504883 q -3.058594,0 -4.587891,-0.870118 -1.502929,-0.870117 -2.162109,-2.874023 z m -0.47461,-10.625977 q -2.373046,-0.527343 -3.322265,-0.527343 -3.796875,0 -6.196289,1.951171 -2.399414,1.951172 -2.399414,4.614258 0,4.403321 5.194336,4.403321 3.796875,0 6.723632,-3.612305 z"
                id="path18"
                style="font-size:54px;font-family:'Trebuchet MS';text-anchor:middle;fill:none;stroke:#ffffff;stroke-width:6"
                aria-label="a" />
            <path
                d="M 89.526855,45.444336 V 58.074219 H 84.51709 V 18.760742 h 5.009765 v 2.320313 q 2.847657,-2.847657 6.881836,-2.847657 6.011719,0 9.360349,3.744141 3.34864,3.744141 3.34864,10.96875 0,6.433594 -3.375,10.520508 -3.375,4.060547 -9.755864,4.060547 -1.792968,0 -3.849609,-0.632813 -2.030273,-0.632812 -2.610352,-1.450195 z m 0,-20.592774 v 16.453125 q 0.47461,0.711915 2.003907,1.371094 1.529297,0.632813 2.979492,0.632813 9.333986,0 9.333986,-10.546875 0,-5.352539 -2.21485,-7.831055 -2.214839,-2.478516 -7.092769,-2.478516 -1.054687,0 -2.583984,0.738282 -1.529297,0.738281 -2.425782,1.661132 z"
                id="path26"
                style="font-size:54px;font-family:'Trebuchet MS';text-anchor:middle;fill:none;stroke:#ffffff;stroke-width:6"
                aria-label="p" />
            <path
                d="m 148.97852,54.725586 2.71582,-4.007813 q 4.37695,2.926758 8.06836,2.926758 3.40136,0 5.35253,-1.186523 1.97754,-1.160156 1.97754,-2.900391 0,-3.427734 -4.95703,-3.427734 -0.84375,0 -3.05859,0.421875 -2.21485,0.421875 -3.4541,0.421875 -6.01172,0 -6.01172,-4.535156 0,-1.397461 1.39746,-2.53125 1.42383,-1.13379 3.50683,-1.634766 -5.95898,-2.794922 -5.95898,-9.703125 0,-4.429688 3.08496,-7.382813 3.08496,-2.953125 7.62012,-2.953125 4.16601,0 6.51269,1.713868 l 2.50489,-3.00586 3.26953,3.084961 -3.00586,2.267578 q 1.9248,2.504883 1.9248,6.539063 0,4.271484 -2.66308,7.171875 -2.66309,2.90039 -6.98731,3.322265 l -4.13965,0.421875 q -0.73828,0.0791 -1.97753,0.580079 -1.23926,0.474609 -1.23926,1.265625 0,1.081054 2.58398,1.081054 1.13379,0 3.5332,-0.395508 2.39942,-0.421875 3.55958,-0.421875 4.16601,0 6.48632,2.003907 2.34668,1.977539 2.34668,5.510742 0,3.902344 -3.50683,6.301758 -3.48047,2.399414 -8.83301,2.399414 -2.74219,0 -5.77441,-0.975586 -3.03223,-0.975586 -4.87793,-2.373047 z m 10.62597,-32.458008 q -2.61035,0 -4.27148,1.845703 -1.63477,1.845703 -1.63477,4.482422 0,2.953125 1.58203,4.904297 1.6084,1.924805 4.32422,1.924805 2.66309,0 4.16602,-1.872071 1.50293,-1.898437 1.50293,-4.957031 0,-2.636719 -1.63477,-4.482422 -1.6084,-1.845703 -4.03418,-1.845703 z"
                id="path34"
                style="font-size:54px;font-family:'Trebuchet MS';text-anchor:middle;fill:none;stroke:#ffffff;stroke-width:6"
                aria-label="g" />
            <path
                d="M 219.99219,39.010742 V 7.1855469 h 5.00976 V 38.166992 q 0,2.267578 1.292,3.585938 1.31835,1.291992 3.42773,1.291992 v 4.482422 q -9.72949,0 -9.72949,-8.516602 z"
                id="path37"
                style="font-size:54px;font-family:'Trebuchet MS';text-anchor:middle;fill:none;stroke:#ffffff;stroke-width:6"
                aria-label="l" />
        </mask>
        <mask id="mask-A">
            <rect x="0" y="0" width="64" height="64" fill="white" mask="url(#mask-line)" />
            <path
                d="m 37.326172,43.756836 q -3.00586,3.770508 -9.202149,3.770508 -3.322265,0 -5.774414,-2.399414 -2.425781,-2.425782 -2.425781,-6.011719 0,-4.297852 3.744141,-7.250977 3.770508,-2.979492 9.597656,-2.979492 1.582031,0 3.585937,0.685547 0,-6.855469 -6.117187,-6.855469 -4.693359,0 -7.224609,2.53125 l -2.109375,-4.192383 q 1.423828,-1.160156 3.928711,-1.977539 2.53125,-0.84375 4.825195,-0.84375 6.143555,0 8.912109,2.794922 2.794922,2.794922 2.794922,8.885742 v 10.125 q 0,3.717774 2.214844,4.957032 v 2.504883 q -3.058594,0 -4.587891,-0.870118 -1.502929,-0.870117 -2.162109,-2.874023 z m -0.47461,-10.625977 q -2.373046,-0.527343 -3.322265,-0.527343 -3.796875,0 -6.196289,1.951171 -2.399414,1.951172 -2.399414,4.614258 0,4.403321 5.194336,4.403321 3.796875,0 6.723632,-3.612305 z"
                id="path19"
                style="font-size:54px;font-family:'Trebuchet MS';text-anchor:middle"
                aria-label="a" />
        </mask>
        <mask id="mask-P">
            <rect x="64" y="0" width="64" height="64" fill="white" mask="url(#mask-line)" />
            <path
                d="M 89.526855,45.444336 V 58.074219 H 84.51709 V 18.760742 h 5.009765 v 2.320313 q 2.847657,-2.847657 6.881836,-2.847657 6.011719,0 9.360349,3.744141 3.34864,3.744141 3.34864,10.96875 0,6.433594 -3.375,10.520508 -3.375,4.060547 -9.755864,4.060547 -1.792968,0 -3.849609,-0.632813 -2.030273,-0.632812 -2.610352,-1.450195 z m 0,-20.592774 v 16.453125 q 0.47461,0.711915 2.003907,1.371094 1.529297,0.632813 2.979492,0.632813 9.333986,0 9.333986,-10.546875 0,-5.352539 -2.21485,-7.831055 -2.214839,-2.478516 -7.092769,-2.478516 -1.054687,0 -2.583984,0.738282 -1.529297,0.738281 -2.425782,1.661132 z"
                id="path27"
                style="font-size:54px;font-family:'Trebuchet MS';text-anchor:middle"
                aria-label="p" />
        </mask>
        <mask id="mask-G">
            <rect x="128" y="0" width="64" height="64" fill="white" mask="url(#mask-line)" />
            <path
                d="m 148.97852,54.725586 2.71582,-4.007813 q 4.37695,2.926758 8.06836,2.926758 3.40136,0 5.35253,-1.186523 1.97754,-1.160156 1.97754,-2.900391 0,-3.427734 -4.95703,-3.427734 -0.84375,0 -3.05859,0.421875 -2.21485,0.421875 -3.4541,0.421875 -6.01172,0 -6.01172,-4.535156 0,-1.397461 1.39746,-2.53125 1.42383,-1.13379 3.50683,-1.634766 -5.95898,-2.794922 -5.95898,-9.703125 0,-4.429688 3.08496,-7.382813 3.08496,-2.953125 7.62012,-2.953125 4.16601,0 6.51269,1.713868 l 2.50489,-3.00586 3.26953,3.084961 -3.00586,2.267578 q 1.9248,2.504883 1.9248,6.539063 0,4.271484 -2.66308,7.171875 -2.66309,2.90039 -6.98731,3.322265 l -4.13965,0.421875 q -0.73828,0.0791 -1.97753,0.580079 -1.23926,0.474609 -1.23926,1.265625 0,1.081054 2.58398,1.081054 1.13379,0 3.5332,-0.395508 2.39942,-0.421875 3.55958,-0.421875 4.16601,0 6.48632,2.003907 2.34668,1.977539 2.34668,5.510742 0,3.902344 -3.50683,6.301758 -3.48047,2.399414 -8.83301,2.399414 -2.74219,0 -5.77441,-0.975586 -3.03223,-0.975586 -4.87793,-2.373047 z m 10.62597,-32.458008 q -2.61035,0 -4.27148,1.845703 -1.63477,1.845703 -1.63477,4.482422 0,2.953125 1.58203,4.904297 1.6084,1.924805 4.32422,1.924805 2.66309,0 4.16602,-1.872071 1.50293,-1.898437 1.50293,-4.957031 0,-2.636719 -1.63477,-4.482422 -1.6084,-1.845703 -4.03418,-1.845703 z"
                id="path35"
                style="font-size:54px;font-family:'Trebuchet MS';text-anchor:middle"
                aria-label="g" />
        </mask>
        <mask id="mask-L">
            <rect x="192" y="0" width="64" height="64" fill="white" mask="url(#mask-line)" />
            <path
                d="M 219.99219,39.010742 V 7.1855469 h 5.00976 V 38.166992 q 0,2.267578 1.292,3.585938 1.31835,1.291992 3.42773,1.291992 v 4.482422 q -9.72949,0 -9.72949,-8.516602 z"
                id="path38"
                style="font-size:54px;font-family:'Trebuchet MS';text-anchor:middle"
                aria-label="l" />
        </mask>
    </defs>
    <path d="M 2 32 L 2 4 A 2 2 0 0 1 4 2 L 32 2 A 30 30 0 0 1 62 32 L 62 60 A 2 2 0 0 1 60 62 L 32 62 A 30 30 0 0 1 2 32"
          fill='#d4b126' mask='url(#mask-A)'/>
    <path d="M 66 32 A 30 30 0 0 1 96 2 L 124 2 A 2 2 0 0 1 126 4 L 126 32 A 30 30 0 0 1 96 62 L 68 62 A 2 2 0 0 1 66 60 L 66 32"
          fill='#eb8e2a' mask='url(#mask-P)' />
    <path d="M 130 32 L 130 4 A 2 2 0 0 1 132 2 L 160 2 A 30 30 0 0 1 190 32 L 190 60 A 2 2 0 0 1 188 62 L 160 62 A 30 30 0 0 1 130 32"
          fill='#F5512C' mask='url(#mask-G)' />
    <path d="M 194 32 A 30 30 0 0 1 224 2 L 252 2 A 2 2 0 0 1 254 4 L 254 32 A 30 30 0 0 1 224 62 L 196 62 A 2 2 0 0 1 194 60 L 194 32"
          fill='#f52e5f' mask='url(#mask-L)' />
</svg>
